X: 1584
T: Lady Day
R: hornpipe
B: O'Neill's 1850 #1584
O: F.O'Neill
Z: Michael Hogan
Z: Michael D. Long, 9/29/98
M: 2/4
L: 1/16
K: G
(Bd) | edBA GABG | AGFG E2(FE) | DEFG ABcA |1 Bd^ce d2 :|2 (3(GAG) Bd g2 H|]| (D/E/F/G/) | B2BA B2BA |
| GAB^c d2(cd) | edcB ABAG | (3(FGF) (3(EFE) DEFD || ABAF BcBG | ABAF G2(AB) | cBAG FGEF | D2d2 "_D.C."d2 |]
